app/assets/images/drill.svg

<?xml version="1.0" encoding="UTF-8" standalone="no"?>
<svg
   xmlns:dc="http://purl.org/dc/elements/1.1/"
   xmlns:cc="http://creativecommons.org/ns#"
   xmlns:rdf="http://www.w3.org/1999/02/22-rdf-syntax-ns#"
   xmlns:svg="http://www.w3.org/2000/svg"
   xmlns="http://www.w3.org/2000/svg"
   xmlns:sodipodi="http://sodipodi.sourceforge.net/DTD/sodipodi-0.dtd"
   xmlns:inkscape="http://www.inkscape.org/namespaces/inkscape"
   version="1.1"
   id="svg2"
   width="128"
   height="128"
   viewBox="0 0 128 128"
   sodipodi:docname="drill.svg"
   inkscape:version="1.0.2 (e86c870879, 2021-01-15)">
  <metadata
     id="metadata8">
    <rdf:RDF>
      <cc:Work
         rdf:about="">
        <dc:format>image/svg+xml</dc:format>
        <dc:type
           rdf:resource="http://purl.org/dc/dcmitype/StillImage" />
        <dc:title></dc:title>
      </cc:Work>
    </rdf:RDF>
  </metadata>
  <defs
     id="defs6">
    <marker
       style="overflow:visible;"
       id="Arrow2Lend"
       refX="0.0"
       refY="0.0"
       orient="auto"
       inkscape:stockid="Arrow2Lend"
       inkscape:isstock="true">
      <path
         transform="scale(1.1) rotate(180) translate(1,0)"
         d="M 8.7185878,4.0337352 L -2.2072895,0.016013256 L 8.7185884,-4.0017078 C 6.9730900,-1.6296469 6.9831476,1.6157441 8.7185878,4.0337352 z "
         style="fill-rule:evenodd;stroke-width:0.625;stroke-linejoin:round;stroke:#000000;stroke-opacity:1;fill:#000000;fill-opacity:1"
         id="path979" />
    </marker>
    <marker
       style="overflow:visible;"
       id="Arrow1Send"
       refX="0.0"
       refY="0.0"
       orient="auto"
       inkscape:stockid="Arrow1Send"
       inkscape:isstock="true">
      <path
         transform="scale(0.2) rotate(180) translate(6,0)"
         style="fill-rule:evenodd;stroke:#000000;stroke-width:1pt;stroke-opacity:1;fill:#000000;fill-opacity:1"
         d="M 0.0,0.0 L 5.0,-5.0 L -12.5,0.0 L 5.0,5.0 L 0.0,0.0 z "
         id="path973" />
    </marker>
    <marker
       style="overflow:visible;"
       id="Arrow1Lend"
       refX="0.0"
       refY="0.0"
       orient="auto"
       inkscape:stockid="Arrow1Lend"
       inkscape:isstock="true">
      <path
         transform="scale(0.8) rotate(180) translate(12.5,0)"
         style="fill-rule:evenodd;stroke:#000000;stroke-width:1pt;stroke-opacity:1;fill:#000000;fill-opacity:1"
         d="M 0.0,0.0 L 5.0,-5.0 L -12.5,0.0 L 5.0,5.0 L 0.0,0.0 z "
         id="path961" />
    </marker>
    <marker
       style="overflow:visible"
       id="Arrow1Send-5"
       refX="0"
       refY="0"
       orient="auto"
       inkscape:stockid="Arrow1Send"
       inkscape:isstock="true">
      <path
         transform="matrix(-0.2,0,0,-0.2,-1.2,0)"
         style="fill:#000000;fill-opacity:1;fill-rule:evenodd;stroke:#000000;stroke-width:1pt;stroke-opacity:1"
         d="M 0,0 5,-5 -12.5,0 5,5 Z"
         id="path973-3" />
    </marker>
    <marker
       style="overflow:visible"
       id="Arrow1Send-6"
       refX="0"
       refY="0"
       orient="auto"
       inkscape:stockid="Arrow1Send"
       inkscape:isstock="true">
      <path
         transform="matrix(-0.2,0,0,-0.2,-1.2,0)"
         style="fill:#000000;fill-opacity:1;fill-rule:evenodd;stroke:#000000;stroke-width:1pt;stroke-opacity:1"
         d="M 0,0 5,-5 -12.5,0 5,5 Z"
         id="path973-2" />
    </marker>
  </defs>
  <sodipodi:namedview
     pagecolor="#ffffff"
     bordercolor="#666666"
     borderopacity="1"
     objecttolerance="10"
     gridtolerance="10"
     guidetolerance="10"
     inkscape:pageopacity="0"
     inkscape:pageshadow="2"
     inkscape:window-width="1920"
     inkscape:window-height="1016"
     id="namedview4"
     showgrid="false"
     inkscape:zoom="1.3097054"
     inkscape:cx="328.94998"
     inkscape:cy="-110.71442"
     inkscape:window-x="0"
     inkscape:window-y="27"
     inkscape:window-maximized="1"
     inkscape:current-layer="g952"
     inkscape:document-rotation="0"
     units="px"
     width="128mm" />
  <g
     inkscape:groupmode="layer"
     inkscape:label="Image"
     id="g10">
    <g
       id="g1601">
      <path
         style="fill:none;stroke:#000000;stroke-width:3;stroke-linecap:butt;stroke-linejoin:round;stroke-miterlimit:4;stroke-dasharray:none;stroke-opacity:1"
         d="m 5,16 v 97 c 0,1.50903 0.7651293,2 1.9999994,2 H 120.99999 C 122.30624,115 123,114.24308 123,113 V 14.999999 C 123,13.877295 122.18037,13 120.99999,13 H 7.9999999 C 6.0410853,13 5,14.603004 5,16 Z"
         id="path850"
         sodipodi:nodetypes="ccccccccc" />
      <path
         style="fill:#ff6600;fill-opacity:1;stroke:#000000;stroke-width:1px;stroke-linecap:round;stroke-linejoin:round;stroke-opacity:1"
         d="M 47,14 V 63.000001 H 80 V 14 Z"
         id="path854"
         sodipodi:nodetypes="ccccc" />
      <path
         style="fill:none;stroke:#000000;stroke-width:3;stroke-linecap:round;stroke-linejoin:miter;stroke-miterlimit:4;stroke-dasharray:none;stroke-opacity:1"
         d="M 58,22.447708 H 70"
         id="path856"
         sodipodi:nodetypes="cc" />
      <circle
         style="fill:#ffffff;fill-opacity:1;stroke:#000000;stroke-width:1;stroke-linecap:round;stroke-linejoin:round;stroke-miterlimit:4;stroke-dasharray:none;stroke-opacity:1"
         id="path860"
         cx="64"
         cy="26.500004"
         r="2" />
      <path
         style="fill:none;stroke:#000000;stroke-width:1px;stroke-linecap:butt;stroke-linejoin:miter;stroke-opacity:1"
         d="M 13.999999,14.25 V 30 c 0,11.489341 8.077795,54.971931 50.000001,55 41.92221,0.02806 50.49249,-42.783956 50.00001,-55 V 14.25 Z"
         id="path866"
         sodipodi:nodetypes="cczccc" />
      <path
         style="fill:none;stroke:#000000;stroke-width:1px;stroke-linecap:butt;stroke-linejoin:miter;stroke-opacity:1"
         d="m 47,63.000001 c 0,9.833833 7.982009,16.550349 17,16.413682 9.017992,-0.136671 16,-7.341873 16,-16.413682"
         id="path870"
         sodipodi:nodetypes="czc" />
      <path
         style="fill:none;stroke:#000000;stroke-width:1px;stroke-linecap:butt;stroke-linejoin:miter;stroke-opacity:1"
         d="m 55.999999,26 c 0,3.689146 2.696948,8.080371 8.000001,8.000001 C 69.303054,33.919621 71.999999,28.585109 71.999999,26"
         id="path870-3"
         sodipodi:nodetypes="czc" />
      <path
         style="fill:none;stroke:#000000;stroke-width:1px;stroke-linecap:butt;stroke-linejoin:miter;stroke-opacity:1"
         d="M 47,114.91572 C 47,105.08188 54.982009,98.365367 64.000002,98.502034 73.017992,98.638706 80,105.84391 80,114.91572"
         id="path870-6"
         sodipodi:nodetypes="czc" />
    </g>
    <g
       id="g952"
       transform="translate(64.159298,63.308837)">
      <g
         id="g962-1"
         transform="matrix(1.6986301,0,0,1.6986301,-118.15738,-42.634202)">
        <path
           style="fill:#7e4d07;fill-opacity:1;stroke:#000000;stroke-width:3;stroke-linecap:round;stroke-linejoin:miter;stroke-miterlimit:4;stroke-dasharray:none;stroke-opacity:1"
           d="M 56.890214,28.028702 51.993197,23.131684"
           id="path938-2" />
        <path
           style="fill:#7e4d07;fill-opacity:1;stroke:#000000;stroke-width:3;stroke-linecap:round;stroke-linejoin:miter;stroke-miterlimit:4;stroke-dasharray:none;stroke-opacity:1"
           d="m 51.993197,28.028702 4.897017,-4.897018"
           id="path938-3-7" />
      </g>
      <g
         id="g962-0"
         transform="matrix(1.6986301,0,0,1.6986301,-62.525655,-81.696932)">
        <path
           style="fill:#7e4d07;fill-opacity:1;stroke:#000000;stroke-width:3;stroke-linecap:round;stroke-linejoin:miter;stroke-miterlimit:4;stroke-dasharray:none;stroke-opacity:1"
           d="M 56.890214,28.028702 51.993197,23.131684"
           id="path938-9" />
        <path
           style="fill:#7e4d07;fill-opacity:1;stroke:#000000;stroke-width:3;stroke-linecap:round;stroke-linejoin:miter;stroke-miterlimit:4;stroke-dasharray:none;stroke-opacity:1"
           d="m 51.993197,28.028702 4.897017,-4.897018"
           id="path938-3-3" />
      </g>
    </g>
    <path
       style="fill:none;stroke:#000000;stroke-width:2;stroke-linecap:round;stroke-linejoin:round;stroke-miterlimit:4;stroke-dasharray:8, 16;stroke-dashoffset:0;stroke-opacity:1;marker-end:url(#Arrow1Send)"
       d="M 26.981103,87.840865 18.406239,37.636067"
       id="path956" />
    <circle
       style="fill:#000080;fill-opacity:1;stroke:#000080;stroke-width:2;stroke-linecap:round;stroke-linejoin:round;stroke-miterlimit:4;stroke-dasharray:none;stroke-opacity:1"
       id="path954-7"
       cx="15.755028"
       cy="27.514872"
       r="7.8375411" />
    <path
       style="fill:none;stroke:#000000;stroke-width:2;stroke-linecap:round;stroke-linejoin:round;stroke-miterlimit:4;stroke-dasharray:none;stroke-dashoffset:0;stroke-opacity:1;marker-end:url(#Arrow1Send-5)"
       d="M 39.131253,90.243336 94.976472,51.058407"
       id="path956-5"
       sodipodi:nodetypes="cc" />
    <path
       style="fill:none;stroke:#000000;stroke-width:2;stroke-linecap:round;stroke-linejoin:round;stroke-miterlimit:4;stroke-dasharray:8, 16;stroke-dashoffset:0;stroke-opacity:1;marker-end:url(#Arrow1Send-6)"
       d="M 23.027659,32.901325 88.906885,48.356504"
       id="path956-9"
       sodipodi:nodetypes="cc" />
    <circle
       style="fill:#000080;fill-opacity:1;stroke:#000080;stroke-width:2;stroke-linecap:round;stroke-linejoin:round;stroke-miterlimit:4;stroke-dasharray:none;stroke-opacity:1"
       id="path954"
       cx="29.888445"
       cy="94.297394"
       r="7.8375411" />
  </g>
</svg>

<svg xmlns="http://www.w3.org/2000/svg" viewBox="0 0 128 128">
  <path fill="none" stroke="#000" stroke-linejoin="round" stroke-width="3" d="M5 16v97c0 1.509.765 2 2 2h114c1.306 0 2-.757 2-2V15c0-1.123-.82-2-2-2H8c-1.959 0-3 1.603-3 3Z"/>
  <path fill="#f60" stroke="#000" stroke-linecap="round" stroke-linejoin="round" d="M47 14v49h33V14Z"/>
  <path fill="none" stroke="#000" stroke-linecap="round" stroke-width="3" d="M58 22.448h12"/>
  <circle cx="64" cy="26.5" r="2" fill="#fff" stroke="#000" stroke-linecap="round" stroke-linejoin="round"/>
  <path fill="none" stroke="#000" d="M14 14.25V30c0 11.49 8.078 54.972 50 55 41.922.028 50.492-42.784 50-55V14.25Z"/>
  <path fill="none" stroke="#000" d="M47 63c0 9.834 7.982 16.55 17 16.414 9.018-.137 16-7.342 16-16.414M56 26c0 3.69 2.697 8.08 8 8 5.303-.08 8-5.415 8-8m-25 88.916c0-9.834 7.982-16.55 17-16.414 9.018.137 16 7.342 16 16.414"/>
  <path fill="#7e4d07" stroke="#000" stroke-linecap="round" stroke-width="5.096" d="m42.637 68.286-8.318-8.318m0 8.318 8.318-8.318M98.27 29.223l-8.32-8.318m0 8.318 8.32-8.318"/>
  <circle cx="15.755" cy="27.515" r="7.838" fill="navy" stroke="navy" stroke-linecap="round" stroke-linejoin="round" stroke-width="2"/>
  <circle cx="29.888" cy="94.297" r="7.838" fill="navy" stroke="navy" stroke-linecap="round" stroke-linejoin="round" stroke-width="2"/>
</svg>
